images/3902.svg

<?xml version="1.0" encoding="UTF-8"?>
<svg xmlns="http://www.w3.org/2000/svg" xmlns:xlink="http://www.w3.org/1999/xlink" width="300pt" height="300pt" viewBox="0 0 300 300" version="1.1">
<defs>
<g>
<symbol overflow="visible" id="glyph0-0">
<path style="stroke:none;" d="M 0.546875 1.9375 L 0.546875 -7.75 L 6.046875 -7.75 L 6.046875 1.9375 Z M 1.171875 1.328125 L 5.4375 1.328125 L 5.4375 -7.140625 L 1.171875 -7.140625 Z M 1.171875 1.328125 "/>
</symbol>
<symbol overflow="visible" id="glyph0-1">
<path style="stroke:none;" d="M 1.078125 -8.015625 L 2.546875 -8.015625 L 6.09375 -1.3125 L 6.09375 -8.015625 L 7.15625 -8.015625 L 7.15625 0 L 5.6875 0 L 2.125 -6.703125 L 2.125 0 L 1.078125 0 Z M 1.078125 -8.015625 "/>
</symbol>
</g>
</defs>
<g id="surface54041">
<rect x="0" y="0" width="300" height="300" style="fill:rgb(100%,100%,100%);fill-opacity:1;stroke:none;"/>
<path style="fill:none;stroke-width:1.2;stroke-linecap:butt;stroke-linejoin:miter;stroke:rgb(0%,0%,0%);stroke-opacity:1;stroke-miterlimit:10;" d="M 218.851562 136.234375 L 195.898438 149.484375 "/>
<path style="fill:none;stroke-width:1.2;stroke-linecap:butt;stroke-linejoin:miter;stroke:rgb(0%,0%,0%);stroke-opacity:1;stroke-miterlimit:10;" d="M 213.4375 132.160156 L 195.078125 142.761719 "/>
<path style="fill:none;stroke-width:1.2;stroke-linecap:butt;stroke-linejoin:miter;stroke:rgb(0%,0%,0%);stroke-opacity:1;stroke-miterlimit:10;" d="M 218.851562 109.734375 L 218.851562 136.234375 "/>
<path style="fill:none;stroke-width:1.2;stroke-linecap:butt;stroke-linejoin:miter;stroke:rgb(0%,0%,0%);stroke-opacity:1;stroke-miterlimit:10;" d="M 195.898438 149.484375 L 172.949219 136.234375 "/>
<path style="fill:none;stroke-width:1.2;stroke-linecap:butt;stroke-linejoin:miter;stroke:rgb(0%,0%,0%);stroke-opacity:1;stroke-miterlimit:10;" d="M 172.949219 136.234375 L 172.949219 109.734375 "/>
<path style="fill:none;stroke-width:1.2;stroke-linecap:butt;stroke-linejoin:miter;stroke:rgb(0%,0%,0%);stroke-opacity:1;stroke-miterlimit:10;" d="M 179.183594 133.585938 L 179.183594 112.386719 "/>
<path style="fill:none;stroke-width:1.2;stroke-linecap:butt;stroke-linejoin:miter;stroke:rgb(0%,0%,0%);stroke-opacity:1;stroke-miterlimit:10;" d="M 172.949219 136.234375 L 150 149.484375 "/>
<path style="fill:none;stroke-width:1.2;stroke-linecap:butt;stroke-linejoin:miter;stroke:rgb(0%,0%,0%);stroke-opacity:1;stroke-miterlimit:10;" d="M 172.949219 109.734375 L 195.898438 96.484375 "/>
<path style="fill:none;stroke-width:1.2;stroke-linecap:butt;stroke-linejoin:miter;stroke:rgb(0%,0%,0%);stroke-opacity:1;stroke-miterlimit:10;" d="M 195.898438 96.484375 L 218.851562 109.734375 "/>
<path style="fill:none;stroke-width:1.2;stroke-linecap:butt;stroke-linejoin:miter;stroke:rgb(0%,0%,0%);stroke-opacity:1;stroke-miterlimit:10;" d="M 195.078125 103.210938 L 213.4375 113.808594 "/>
<path style="fill:none;stroke-width:1.2;stroke-linecap:butt;stroke-linejoin:miter;stroke:rgb(0%,0%,0%);stroke-opacity:1;stroke-miterlimit:10;" d="M 218.851562 109.734375 L 241.800781 96.484375 "/>
<path style="fill:none;stroke-width:1.2;stroke-linecap:butt;stroke-linejoin:miter;stroke:rgb(0%,0%,0%);stroke-opacity:1;stroke-miterlimit:10;" d="M 241.800781 96.484375 L 253.273438 89.859375 "/>
<path style="fill:none;stroke-width:1.2;stroke-linecap:butt;stroke-linejoin:miter;stroke:rgb(0%,0%,100%);stroke-opacity:1;stroke-miterlimit:10;" d="M 253.273438 89.859375 L 264.75 83.234375 "/>
<path style="fill:none;stroke-width:1.2;stroke-linecap:butt;stroke-linejoin:miter;stroke:rgb(0%,0%,0%);stroke-opacity:1;stroke-miterlimit:10;" d="M 247.210938 100.558594 L 256.394531 95.257812 "/>
<path style="fill:none;stroke-width:1.2;stroke-linecap:butt;stroke-linejoin:miter;stroke:rgb(0%,0%,100%);stroke-opacity:1;stroke-miterlimit:10;" d="M 256.394531 95.257812 L 265.574219 89.960938 "/>
<path style="fill:none;stroke-width:1.2;stroke-linecap:butt;stroke-linejoin:miter;stroke:rgb(0%,0%,0%);stroke-opacity:1;stroke-miterlimit:10;" d="M 240.976562 89.757812 L 250.15625 84.460938 "/>
<path style="fill:none;stroke-width:1.2;stroke-linecap:butt;stroke-linejoin:miter;stroke:rgb(0%,0%,100%);stroke-opacity:1;stroke-miterlimit:10;" d="M 250.15625 84.460938 L 259.335938 79.160156 "/>
<path style=" stroke:none;fill-rule:nonzero;fill:rgb(100%,100%,100%);fill-opacity:1;" d="M 260.75 76.734375 L 268.75 76.734375 L 268.75 89.734375 L 260.75 89.734375 Z M 260.75 76.734375 "/>
<g style="fill:rgb(0%,0%,100%);fill-opacity:1;">
  <use xlink:href="#glyph0-1" x="260.75" y="86.635742"/>
</g>
<path style="fill:none;stroke-width:1.2;stroke-linecap:butt;stroke-linejoin:miter;stroke:rgb(0%,0%,0%);stroke-opacity:1;stroke-miterlimit:10;" d="M 150 149.484375 L 127.050781 136.234375 "/>
<path style="fill:none;stroke-width:1.2;stroke-linecap:butt;stroke-linejoin:miter;stroke:rgb(0%,0%,0%);stroke-opacity:1;stroke-miterlimit:10;" d="M 150 149.484375 L 150 162.734375 "/>
<path style="fill:none;stroke-width:1.2;stroke-linecap:butt;stroke-linejoin:miter;stroke:rgb(0%,0%,100%);stroke-opacity:1;stroke-miterlimit:10;" d="M 150 162.734375 L 150 175.984375 "/>
<path style="fill:none;stroke-width:1.2;stroke-linecap:butt;stroke-linejoin:miter;stroke:rgb(0%,0%,0%);stroke-opacity:1;stroke-miterlimit:10;" d="M 127.050781 136.234375 L 127.050781 109.734375 "/>
<path style="fill:none;stroke-width:1.2;stroke-linecap:butt;stroke-linejoin:miter;stroke:rgb(0%,0%,0%);stroke-opacity:1;stroke-miterlimit:10;" d="M 120.816406 133.585938 L 120.816406 112.386719 "/>
<path style="fill:none;stroke-width:1.2;stroke-linecap:butt;stroke-linejoin:miter;stroke:rgb(0%,0%,0%);stroke-opacity:1;stroke-miterlimit:10;" d="M 104.101562 149.484375 L 127.050781 136.234375 "/>
<path style="fill:none;stroke-width:1.2;stroke-linecap:butt;stroke-linejoin:miter;stroke:rgb(0%,0%,0%);stroke-opacity:1;stroke-miterlimit:10;" d="M 127.050781 109.734375 L 104.101562 96.484375 "/>
<path style="fill:none;stroke-width:1.2;stroke-linecap:butt;stroke-linejoin:miter;stroke:rgb(0%,0%,0%);stroke-opacity:1;stroke-miterlimit:10;" d="M 104.101562 96.484375 L 81.148438 109.734375 "/>
<path style="fill:none;stroke-width:1.2;stroke-linecap:butt;stroke-linejoin:miter;stroke:rgb(0%,0%,0%);stroke-opacity:1;stroke-miterlimit:10;" d="M 104.921875 103.210938 L 86.5625 113.808594 "/>
<path style="fill:none;stroke-width:1.2;stroke-linecap:butt;stroke-linejoin:miter;stroke:rgb(0%,0%,0%);stroke-opacity:1;stroke-miterlimit:10;" d="M 81.148438 109.734375 L 81.148438 136.234375 "/>
<path style="fill:none;stroke-width:1.2;stroke-linecap:butt;stroke-linejoin:miter;stroke:rgb(0%,0%,0%);stroke-opacity:1;stroke-miterlimit:10;" d="M 81.148438 109.734375 L 58.199219 96.484375 "/>
<path style="fill:none;stroke-width:1.2;stroke-linecap:butt;stroke-linejoin:miter;stroke:rgb(0%,0%,0%);stroke-opacity:1;stroke-miterlimit:10;" d="M 81.148438 136.234375 L 104.101562 149.484375 "/>
<path style="fill:none;stroke-width:1.2;stroke-linecap:butt;stroke-linejoin:miter;stroke:rgb(0%,0%,0%);stroke-opacity:1;stroke-miterlimit:10;" d="M 86.5625 132.160156 L 104.921875 142.761719 "/>
<path style="fill:none;stroke-width:1.2;stroke-linecap:butt;stroke-linejoin:miter;stroke:rgb(0%,0%,0%);stroke-opacity:1;stroke-miterlimit:10;" d="M 58.199219 96.484375 L 46.726562 89.859375 "/>
<path style="fill:none;stroke-width:1.2;stroke-linecap:butt;stroke-linejoin:miter;stroke:rgb(0%,0%,100%);stroke-opacity:1;stroke-miterlimit:10;" d="M 46.726562 89.859375 L 35.25 83.234375 "/>
<path style="fill:none;stroke-width:1.2;stroke-linecap:butt;stroke-linejoin:miter;stroke:rgb(0%,0%,0%);stroke-opacity:1;stroke-miterlimit:10;" d="M 59.023438 89.757812 L 49.84375 84.460938 "/>
<path style="fill:none;stroke-width:1.2;stroke-linecap:butt;stroke-linejoin:miter;stroke:rgb(0%,0%,100%);stroke-opacity:1;stroke-miterlimit:10;" d="M 49.84375 84.460938 L 40.664062 79.160156 "/>
<path style="fill:none;stroke-width:1.2;stroke-linecap:butt;stroke-linejoin:miter;stroke:rgb(0%,0%,0%);stroke-opacity:1;stroke-miterlimit:10;" d="M 52.789062 100.558594 L 43.605469 95.257812 "/>
<path style="fill:none;stroke-width:1.2;stroke-linecap:butt;stroke-linejoin:miter;stroke:rgb(0%,0%,100%);stroke-opacity:1;stroke-miterlimit:10;" d="M 43.605469 95.257812 L 34.425781 89.960938 "/>
<path style=" stroke:none;fill-rule:nonzero;fill:rgb(100%,100%,100%);fill-opacity:1;" d="M 27.25 76.734375 L 35.25 76.734375 L 35.25 89.734375 L 27.25 89.734375 Z M 27.25 76.734375 "/>
<g style="fill:rgb(0%,0%,100%);fill-opacity:1;">
  <use xlink:href="#glyph0-1" x="27.25" y="86.635742"/>
</g>
<path style="fill:none;stroke-width:1.2;stroke-linecap:butt;stroke-linejoin:miter;stroke:rgb(0%,0%,100%);stroke-opacity:1;stroke-miterlimit:10;" d="M 150 175.984375 L 160.71875 183.773438 "/>
<path style="fill:none;stroke-width:1.2;stroke-linecap:butt;stroke-linejoin:miter;stroke:rgb(0%,0%,0%);stroke-opacity:1;stroke-miterlimit:10;" d="M 160.71875 183.773438 L 171.4375 191.5625 "/>
<path style="fill:none;stroke-width:1.2;stroke-linecap:butt;stroke-linejoin:miter;stroke:rgb(0%,0%,100%);stroke-opacity:1;stroke-miterlimit:10;" d="M 128.5625 191.5625 L 150 175.984375 "/>
<path style=" stroke:none;fill-rule:nonzero;fill:rgb(100%,100%,100%);fill-opacity:1;" d="M 146 169.484375 L 154 169.484375 L 154 182.484375 L 146 182.484375 Z M 146 169.484375 "/>
<g style="fill:rgb(0%,0%,100%);fill-opacity:1;">
  <use xlink:href="#glyph0-1" x="146" y="179.385742"/>
</g>
<path style="fill:none;stroke-width:1.2;stroke-linecap:butt;stroke-linejoin:miter;stroke:rgb(0%,0%,0%);stroke-opacity:1;stroke-miterlimit:10;" d="M 171.4375 191.5625 L 167.34375 204.164062 "/>
<path style="fill:none;stroke-width:1.2;stroke-linecap:butt;stroke-linejoin:miter;stroke:rgb(0%,0%,100%);stroke-opacity:1;stroke-miterlimit:10;" d="M 167.34375 204.164062 L 163.25 216.765625 "/>
<path style="fill:none;stroke-width:1.2;stroke-linecap:butt;stroke-linejoin:miter;stroke:rgb(0%,0%,0%);stroke-opacity:1;stroke-miterlimit:10;" d="M 164.691406 192.15625 L 161.414062 202.238281 "/>
<path style="fill:none;stroke-width:1.2;stroke-linecap:butt;stroke-linejoin:miter;stroke:rgb(0%,0%,100%);stroke-opacity:1;stroke-miterlimit:10;" d="M 161.414062 202.238281 L 158.140625 212.320312 "/>
<path style="fill:none;stroke-width:1.2;stroke-linecap:butt;stroke-linejoin:miter;stroke:rgb(0%,0%,100%);stroke-opacity:1;stroke-miterlimit:10;" d="M 163.25 216.765625 L 150 216.765625 "/>
<path style="fill:none;stroke-width:1.2;stroke-linecap:butt;stroke-linejoin:miter;stroke:rgb(0%,0%,0%);stroke-opacity:1;stroke-miterlimit:10;" d="M 150 216.765625 L 136.75 216.765625 "/>
<path style=" stroke:none;fill-rule:nonzero;fill:rgb(100%,100%,100%);fill-opacity:1;" d="M 159.25 210.265625 L 167.25 210.265625 L 167.25 223.265625 L 159.25 223.265625 Z M 159.25 210.265625 "/>
<g style="fill:rgb(0%,0%,100%);fill-opacity:1;">
  <use xlink:href="#glyph0-1" x="159.25" y="220.166992"/>
</g>
<path style="fill:none;stroke-width:1.2;stroke-linecap:butt;stroke-linejoin:miter;stroke:rgb(0%,0%,0%);stroke-opacity:1;stroke-miterlimit:10;" d="M 136.75 216.765625 L 132.65625 204.164062 "/>
<path style="fill:none;stroke-width:1.2;stroke-linecap:butt;stroke-linejoin:miter;stroke:rgb(0%,0%,100%);stroke-opacity:1;stroke-miterlimit:10;" d="M 132.65625 204.164062 L 128.5625 191.5625 "/>
<path style="fill:none;stroke-width:1.2;stroke-linecap:butt;stroke-linejoin:miter;stroke:rgb(0%,0%,0%);stroke-opacity:1;stroke-miterlimit:10;" d="M 141.859375 212.320312 L 138.585938 202.238281 "/>
<path style="fill:none;stroke-width:1.2;stroke-linecap:butt;stroke-linejoin:miter;stroke:rgb(0%,0%,100%);stroke-opacity:1;stroke-miterlimit:10;" d="M 138.585938 202.238281 L 135.308594 192.15625 "/>
<path style=" stroke:none;fill-rule:nonzero;fill:rgb(100%,100%,100%);fill-opacity:1;" d="M 124.5625 185.0625 L 132.5625 185.0625 L 132.5625 198.0625 L 124.5625 198.0625 Z M 124.5625 185.0625 "/>
<g style="fill:rgb(0%,0%,100%);fill-opacity:1;">
  <use xlink:href="#glyph0-1" x="124.5625" y="194.963867"/>
</g>
</g>
</svg>

<svg xmlns="http://www.w3.org/2000/svg" xmlns:xlink="http://www.w3.org/1999/xlink" width="300pt" height="300pt" viewBox="0 0 300 300"><defs><symbol overflow="visible"><path d="M.547 1.938V-7.75h5.5v9.688zm.625-.61h4.266v-8.47H1.171zm0 0"/></symbol><symbol overflow="visible" id="a"><path d="M1.078-8.016h1.47l3.546 6.704v-6.704h1.062V0H5.688L2.124-6.703V0H1.078zm0 0"/></symbol></defs><g><path fill="#fff" d="M0 0h300v300H0z"/><path d="M218.852 136.234l-22.954 13.25M213.438 132.16l-18.36 10.602M218.852 109.734v26.5M195.898 149.484l-22.95-13.25M172.95 136.234v-26.5M179.184 133.586v-21.2M172.95 136.234L150 149.484M172.95 109.734l22.948-13.25M195.898 96.484l22.954 13.25M195.078 103.21l18.36 10.6M218.852 109.734l22.95-13.25M241.8 96.484l11.473-6.625" stroke-width="1.2" stroke="#000" stroke-miterlimit="10" fill="none"/><path d="M253.273 89.86l11.477-6.626" stroke-width="1.2" stroke="#00f" stroke-miterlimit="10" fill="none"/><path d="M247.21 100.56l9.185-5.302" stroke-width="1.2" stroke="#000" stroke-miterlimit="10" fill="none"/><path d="M256.395 95.258l9.18-5.297" stroke-width="1.2" stroke="#00f" stroke-miterlimit="10" fill="none"/><path d="M240.977 89.758l9.18-5.297" stroke-width="1.2" stroke="#000" stroke-miterlimit="10" fill="none"/><path d="M250.156 84.46l9.18-5.3" stroke-width="1.2" stroke="#00f" stroke-miterlimit="10" fill="none"/><path d="M260.75 76.734h8v13h-8zm0 0" fill="#fff"/><use xlink:href="#a" x="260.75" y="86.636" fill="#00f"/><path d="M150 149.484l-22.95-13.25M150 149.484v13.25" stroke-width="1.2" stroke="#000" stroke-miterlimit="10" fill="none"/><path d="M150 162.734v13.25" stroke-width="1.2" stroke="#00f" stroke-miterlimit="10" fill="none"/><path d="M127.05 136.234v-26.5M120.816 133.586v-21.2M104.102 149.484l22.95-13.25M127.05 109.734l-22.948-13.25M104.102 96.484l-22.954 13.25M104.922 103.21l-18.36 10.6M81.148 109.734v26.5M81.148 109.734l-22.95-13.25M81.148 136.234l22.954 13.25M86.563 132.16l18.36 10.602M58.2 96.484L46.726 89.86" stroke-width="1.2" stroke="#000" stroke-miterlimit="10" fill="none"/><path d="M46.727 89.86L35.25 83.233" stroke-width="1.2" stroke="#00f" stroke-miterlimit="10" fill="none"/><path d="M59.023 89.758l-9.18-5.297" stroke-width="1.2" stroke="#000" stroke-miterlimit="10" fill="none"/><path d="M49.844 84.46l-9.18-5.3" stroke-width="1.2" stroke="#00f" stroke-miterlimit="10" fill="none"/><path d="M52.79 100.56l-9.185-5.302" stroke-width="1.2" stroke="#000" stroke-miterlimit="10" fill="none"/><path d="M43.605 95.258l-9.18-5.297" stroke-width="1.2" stroke="#00f" stroke-miterlimit="10" fill="none"/><path d="M27.25 76.734h8v13h-8zm0 0" fill="#fff"/><use xlink:href="#a" x="27.25" y="86.636" fill="#00f"/><path d="M150 175.984l10.72 7.79" stroke-width="1.2" stroke="#00f" stroke-miterlimit="10" fill="none"/><path d="M160.72 183.773l10.718 7.79" stroke-width="1.2" stroke="#000" stroke-miterlimit="10" fill="none"/><path d="M128.563 191.563L150 175.982" stroke-width="1.2" stroke="#00f" stroke-miterlimit="10" fill="none"/><path d="M146 169.484h8v13h-8zm0 0" fill="#fff"/><use xlink:href="#a" x="146" y="179.386" fill="#00f"/><path d="M171.438 191.563l-4.094 12.6" stroke-width="1.2" stroke="#000" stroke-miterlimit="10" fill="none"/><path d="M167.344 204.164l-4.094 12.602" stroke-width="1.2" stroke="#00f" stroke-miterlimit="10" fill="none"/><path d="M164.69 192.156l-3.276 10.082" stroke-width="1.2" stroke="#000" stroke-miterlimit="10" fill="none"/><path d="M161.414 202.238l-3.273 10.082M163.25 216.766H150" stroke-width="1.2" stroke="#00f" stroke-miterlimit="10" fill="none"/><path d="M150 216.766h-13.25" stroke-width="1.2" stroke="#000" stroke-miterlimit="10" fill="none"/><path d="M159.25 210.266h8v13h-8zm0 0" fill="#fff"/><use xlink:href="#a" x="159.25" y="220.167" fill="#00f"/><path d="M136.75 216.766l-4.094-12.602" stroke-width="1.2" stroke="#000" stroke-miterlimit="10" fill="none"/><path d="M132.656 204.164l-4.094-12.6" stroke-width="1.2" stroke="#00f" stroke-miterlimit="10" fill="none"/><path d="M141.86 212.32l-3.274-10.082" stroke-width="1.2" stroke="#000" stroke-miterlimit="10" fill="none"/><path d="M138.586 202.238l-3.277-10.082" stroke-width="1.2" stroke="#00f" stroke-miterlimit="10" fill="none"/><path d="M124.563 185.063h8v13h-8zm0 0" fill="#fff"/><use xlink:href="#a" x="124.563" y="194.964" fill="#00f"/></g></svg>
